dojo_theme/static/img/dojo/orange.svg

<svg xmlns:svg="http://www.w3.org/2000/svg" xmlns="http://www.w3.org/2000/svg" xmlns:xlink="http://www.w3.org/1999/xlink" viewBox="0 0 478.619 184.762" overflow="visible">
  <g fill="#DD792F" stroke="#1a1a1a" stroke-width="4">
    <path d="M192.044 46.054s-1.475 4.952.21 7.375c1.686 2.423 24.86 1.791 24.86 1.791L205.845 45l-13.801 1.054z"/>
    <path d="M9.831 23.198S129.012 55.285 243.61 55.285 458.289 4.098 462.11 1.806c3.819-2.292 12.987 38.963.765 48.131-12.225 9.168-80.983 48.896-216.208 48.896-135.226 0-233.015-21.392-239.892-29.032-6.876-7.64-6.876-38.199 3.056-46.603z"/>
    <path d="M252.014 126.336s-22.156-6.112-28.268-21.392c-6.111-15.279 58.827-29.795 58.827-29.795l-6.112 31.324-24.447 19.863z"/>
    <path d="M195.479 102.652s30.56 21.392 35.143 19.1c4.584-2.292 58.827-36.671 58.827-36.671L243.61 51.465l-50.423 38.2 2.292 12.987z"/>
    <path d="M22.818 152.312S148.111 75.914 223.746 45.354c75.635-30.56 30.56 29.031 30.56 29.031s-78.69 38.199-110.778 57.299c-32.088 19.1-81.746 50.424-87.858 51.188-6.112.763-32.852-30.56-32.852-30.56z"/>
    <path d="M255.967 27.303s-5.29-1.851-14.146 8.46c-8.857 10.312 15.07 8.197 15.07 8.197l-.924-16.657z"/>
    <path d="M232.15 28.546s94.734 49.659 127.586 60.355c32.851 10.696 113.832 46.603 116.889 55.771 3.057 9.168-27.503 30.559-27.503 30.559s-23.685-21.391-54.243-34.379c-30.56-12.987-83.274-34.379-112.306-48.131-29.031-13.751-89.387-47.367-89.387-47.367l38.964-16.808z"/>
    <path d="M255.834 27.782s-2.292 92.442-4.584 97.026c-2.293 4.584 42.783-12.987 43.546-18.335.765-5.349 6.877-50.423 2.293-55.007-4.584-4.584-36.672-25.976-41.255-23.684z"/>
  </g>
</svg>

<?xml version="1.0" encoding="UTF-8"?>
<!DOCTYPE svg PUBLIC "-//W3C//DTD SVG 1.1//EN" "http://www.w3.org/Graphics/SVG/1.1/DTD/svg11.dtd">
<svg version="1.1" xmlns="http://www.w3.org/2000/svg" xmlns:xlink="http://www.w3.org/1999/xlink" width="478.619" height="184.762" viewBox="0 0 478.619 184.762" overflow="visible" enable-background="new 0 0 478.619 184.762" xml:space="preserve">
			<g>
				<path fill="#DD792F" stroke="#333333" stroke-width="4" d="M192.044,46.054c0,0-1.475,4.952,0.21,7.375      c1.686,2.423,24.86,1.791,24.86,1.791L205.845,45L192.044,46.054z"/>
				<path fill="#DD792F" stroke="#333333" stroke-width="4" d="M9.831,23.198c0,0,119.181,32.087,233.779,32.087      c114.598,0,214.679-51.187,218.5-53.479c3.819-2.292,12.987,38.963,0.765,48.131c-12.225,9.168-80.983,48.896-216.208,48.896      c-135.226,0-233.015-21.392-239.892-29.032C-0.101,62.161-0.101,31.602,9.831,23.198z"/>
				<path fill="#DD792F" stroke="#333333" stroke-width="4" d="M252.014,126.336c0,0-22.156-6.112-28.268-21.392      c-6.111-15.279,58.827-29.795,58.827-29.795l-6.112,31.324L252.014,126.336z"/>
				<path fill="#DD792F" stroke="#333333" stroke-width="4" d="M195.479,102.652c0,0,30.56,21.392,35.143,19.1      c4.584-2.292,58.827-36.671,58.827-36.671L243.61,51.465l-50.423,38.2L195.479,102.652z"/>
				<path fill="#DD792F" stroke="#333333" stroke-width="4" d="M22.818,152.312      c0,0,125.293-76.398,200.928-106.958c75.635-30.56,30.56,29.031,30.56,29.031s-78.69,38.199-110.778,57.299      s-81.746,50.424-87.858,51.188C49.558,183.635,22.818,152.312,22.818,152.312z"/>
				<path fill="#DD792F" stroke="#333333" stroke-width="4" d="M255.967,27.303c0,0-5.29-1.851-14.146,8.46      c-8.857,10.312,15.07,8.197,15.07,8.197L255.967,27.303z"/>
				<path fill="#DD792F" stroke="#333333" stroke-width="4" d="M232.15,28.546c0,0,94.734,49.659,127.586,60.355      c32.851,10.696,113.832,46.603,116.889,55.771s-27.503,30.559-27.503,30.559s-23.685-21.391-54.243-34.379      c-30.56-12.987-83.274-34.379-112.306-48.131c-29.031-13.751-89.387-47.367-89.387-47.367L232.15,28.546z"/>
				<path fill="#DD792F" stroke="#333333" stroke-width="4" d="M255.834,27.782c0,0-2.292,92.442-4.584,97.026      c-2.293,4.584,42.783-12.987,43.546-18.335c0.765-5.349,6.877-50.423,2.293-55.007S260.417,25.49,255.834,27.782z"/>
			</g>
</svg>
